X: 5789
T: Caitlin's Falling Leaves
R: jig
M: 6/8
K: Eminor
|:EFG B2G|cBA B3|EFG B2G|A2F FED|
EFG B2G|cBA B3|GFE FED|E3 E3:|
|:BGB B2d|AFA A2B|G3 GFE|F2D B,3|
BGB B2d|AFA A2B|GFE FED|E3 E3:|

